X:63
T:Frieze Breeches, The    
B:CRE1.061 (Bristin Mire)
F:file ID: cre.1/063frieze
S:John Potts
M:6/8
Q:160
R:jig
K:D
A|D2E F2G|A2d =cAG|A3 B2G|ABA A2F|
D2E F2G|A2d =cAG|F2A G2E|DDD D2:|
|:z| d3 f2d|e2d =cAG|A3 B2G|ABA A2B|
d2e f2d|e2d =cAG|F2A G2E|DDD D2:|

%%%

